X:1
T:The Turoe Stone
L:1/8
M:6/8
I:linebreak $
K:G
V:1 treble 
V:1
|: DFG AFD | GGG ABc | dze ded | dBG AFD | DFG AFD | GGG ABc | dge dBG |$ EFG A-A-A :: B-BA Bcd | %9
 egg afd | efg dBG | dBG AGE | B-BA Bcd | efg azf |$ efg dBG | EFG A-A-A :| %16
